X: 296
%
U:~=!turn!
T: Lady  Frances Somersets
C:Duncan Macintyre
O:Scotland
B:Keith Norman MacDonald : "The Skye collection of the best reels & strathspeys extant" : 1887
Z:Ralph Palmer
R:Reel
M:C
L:1/8
K:Bb
d/e/ | f2 dB b2 fd | e2 dB Acc d/e/ | f2 dB b2 fd | e2 cf dBB d/e/ | !p!f2 dB b2 fd | e2 dB Acc d/e/ | !f!f2 dB g2 a2 | b2 cf dBB ||
F | DFBd fdbd | e2 dB Accd | Bdfa bfdB | e2 cf dBBF | DFBd fdbd | ecdB ABcd | Bbfd Egec | Cecf dBB |]


